X:1
T: Pilgarlick
N:
C:
S:
A:
O:
R:
M:4/4
K:D
I:speed 200
%W:         A1
% voice 1 (1 lines, 28 notes)
K:D
M:4/4
L:1/16
d8 A6 G2 |F4 D8 A4 |B4 G4 d4 c2 B2 |A4 D8 A4 |B4 G4 d4 c2 B2 |A4 g8 f2 e2 |f4 d4 A4 c4 |d16 |
%W:         A2
% voice 1 (1 lines, 28 notes)
d8 A6 G2 |F4 D8 A4 |B4 G4 d4 c2 B2 |A4 D8 A4 |B4 G4 d4 c2 B2 |A4 g8 f2 e2 |f4 d4 A4 c4 |d16 |
%W:         B1
% voice 1 (1 lines, 31 notes)
f8 f6 d2 |f4 a8 f4 |e6 c2 A4 c4 |e4 g8 f2 e2 |d4 B4 ^G4 B4 |d4 f8 ^g4 |a4 ^g2 f2 e2 d2 c2 B2 |A4 A,8 c4 |
%W:         B2
% voice 1 (1 lines, 28 notes)
d8 A6 G2 |F4 D8 A4 |B4 c4 d4 c2 B2 |A4 D8 A4 |B4 G4 d4 c2 B2 |A4 b4 a4 g4 |f4 d4 A4 c4 |d16 ||
